X:1
T:Eddystone Light
M:2/2
L:1/8
K:C
 GG| cc cc GG GF| EE F2 G3 G| A2 AA B2 B2| c2 C2 C4| c2 c2 G2 G2| E2 F2 G3 G|\
 A A2 AB BB B| cc C2 C4| D2 D2 d3 c| B2 G2 G4| G2 GG G2 AB| c6 C2|\
 C8-| C6|
